flaticon/interaction/database-10.svg

<svg xmlns="http://www.w3.org/2000/svg" width="32" height="32" viewBox="0 0 24 24">
    <path d="M 23.355469 19.808594 C 21.863281 17.53125 19.871094 16.242188 17.722656 16.160156 C 17.609375 16.148438 17.496094 16.136719 17.378906 16.136719 C 17.171875 16.136719 16.96875 16.160156 16.773438 16.203125 C 14.820312 16.453125 13.023438 17.710938 11.648438 19.808594 L 11.449219 20.109375 L 11.601562 20.34375 C 13.148438 22.703125 15.226562 24 17.457031 24 C 19.6875 24 21.765625 22.699219 23.308594 20.34375 L 23.507812 20.042969 Z M 19.464844 19.074219 C 19.464844 20.222656 18.527344 21.15625 17.378906 21.15625 C 16.230469 21.15625 15.292969 20.222656 15.292969 19.074219 C 15.292969 18.078125 15.996094 17.242188 16.933594 17.039062 C 17.121094 17.015625 17.3125 17 17.503906 17 C 17.511719 17 17.519531 17.003906 17.527344 17.003906 C 18.605469 17.082031 19.464844 17.972656 19.464844 19.074219 Z M 17.457031 23.152344 C 15.59375 23.152344 13.832031 22.074219 12.46875 20.109375 C 13.132812 19.136719 13.890625 18.382812 14.710938 17.855469 C 14.542969 18.226562 14.445312 18.640625 14.445312 19.074219 C 14.445312 20.691406 15.761719 22.007812 17.378906 22.007812 C 18.996094 22.007812 20.3125 20.691406 20.3125 19.074219 C 20.3125 18.554688 20.179688 18.070312 19.941406 17.648438 C 20.878906 18.160156 21.746094 18.96875 22.488281 20.042969 C 21.121094 22.050781 19.339844 23.152344 17.457031 23.152344 Z M 17.457031 23.152344"/>
    <path d="M 11.109375 17.414062 C 10.757812 17.414062 10.414062 17.40625 10.074219 17.394531 C 9.871094 17.386719 9.675781 17.371094 9.472656 17.359375 C 9.347656 17.355469 9.21875 17.347656 9.09375 17.339844 C 8.828125 17.320312 8.570312 17.296875 8.316406 17.269531 C 8.265625 17.265625 8.214844 17.261719 8.164062 17.257812 C 7.871094 17.222656 7.585938 17.1875 7.3125 17.148438 C 7.300781 17.144531 7.289062 17.144531 7.28125 17.144531 C 5.84375 16.929688 4.613281 16.609375 3.648438 16.222656 C 3.644531 16.222656 3.636719 16.21875 3.628906 16.214844 C 3.453125 16.144531 3.289062 16.070312 3.128906 15.996094 C 3.109375 15.988281 3.089844 15.976562 3.070312 15.96875 C 2.925781 15.902344 2.796875 15.832031 2.671875 15.761719 C 2.640625 15.742188 2.609375 15.726562 2.578125 15.707031 C 2.46875 15.644531 2.371094 15.578125 2.273438 15.511719 C 2.238281 15.484375 2.199219 15.460938 2.164062 15.433594 C 2.082031 15.375 2.011719 15.316406 1.941406 15.253906 C 1.902344 15.222656 1.863281 15.1875 1.828125 15.152344 C 1.773438 15.097656 1.722656 15.042969 1.675781 14.988281 C 1.644531 14.949219 1.609375 14.910156 1.582031 14.867188 C 1.546875 14.816406 1.511719 14.765625 1.484375 14.714844 C 1.460938 14.671875 1.441406 14.628906 1.421875 14.585938 C 1.402344 14.535156 1.386719 14.484375 1.375 14.433594 C 1.359375 14.367188 1.339844 14.296875 1.339844 14.226562 L 1.339844 10.742188 C 1.347656 10.75 1.359375 10.753906 1.367188 10.761719 C 1.464844 10.847656 1.566406 10.9375 1.679688 11.019531 C 3.28125 12.226562 6.476562 13.164062 11.109375 13.164062 C 15.730469 13.164062 18.921875 12.230469 20.527344 11.027344 C 20.652344 10.9375 20.761719 10.84375 20.867188 10.75 C 20.871094 10.746094 20.875 10.746094 20.875 10.742188 L 20.875 14.4375 C 20.875 14.675781 21.066406 14.863281 21.300781 14.863281 C 21.535156 14.863281 21.726562 14.675781 21.726562 14.4375 L 21.726562 3.820312 C 21.726562 3.746094 21.699219 3.675781 21.664062 3.613281 C 21.171875 1.792969 17.511719 0 11.109375 0 C 4.707031 0 1.046875 1.792969 0.554688 3.613281 C 0.519531 3.675781 0.492188 3.746094 0.492188 3.820312 L 0.492188 19.535156 C 0.492188 19.605469 0.507812 19.667969 0.539062 19.726562 C 1.023438 21.777344 5.082031 22.988281 8.953125 23.277344 C 8.964844 23.277344 8.976562 23.28125 8.988281 23.28125 C 9.207031 23.28125 9.394531 23.109375 9.410156 22.886719 C 9.425781 22.652344 9.25 22.449219 9.019531 22.429688 C 4.296875 22.078125 1.546875 20.640625 1.355469 19.46875 C 1.351562 19.449219 1.347656 19.429688 1.339844 19.410156 L 1.339844 15.839844 C 1.347656 15.84375 1.359375 15.851562 1.367188 15.859375 C 1.464844 15.945312 1.566406 16.03125 1.679688 16.113281 C 3.28125 17.324219 6.476562 18.261719 11.109375 18.261719 C 11.34375 18.261719 11.535156 18.070312 11.535156 17.835938 C 11.535156 17.601562 11.34375 17.414062 11.109375 17.414062 Z M 1.597656 5.859375 C 1.722656 5.960938 1.863281 6.058594 2.011719 6.15625 C 2.042969 6.175781 2.078125 6.195312 2.109375 6.214844 C 2.234375 6.292969 2.367188 6.367188 2.503906 6.441406 C 2.554688 6.46875 2.609375 6.496094 2.660156 6.523438 C 2.816406 6.605469 2.976562 6.679688 3.148438 6.753906 C 3.175781 6.765625 3.203125 6.78125 3.230469 6.792969 C 3.429688 6.875 3.640625 6.957031 3.863281 7.035156 C 3.921875 7.054688 3.988281 7.078125 4.050781 7.097656 C 4.222656 7.15625 4.40625 7.214844 4.59375 7.269531 C 4.660156 7.289062 4.726562 7.308594 4.796875 7.328125 C 5.042969 7.394531 5.300781 7.460938 5.570312 7.523438 C 5.605469 7.53125 5.644531 7.539062 5.683594 7.546875 C 5.921875 7.597656 6.167969 7.644531 6.421875 7.691406 C 6.507812 7.707031 6.59375 7.71875 6.679688 7.734375 C 6.921875 7.773438 7.167969 7.808594 7.425781 7.84375 C 7.488281 7.851562 7.550781 7.863281 7.617188 7.871094 C 7.933594 7.90625 8.261719 7.941406 8.597656 7.96875 C 8.679688 7.976562 8.765625 7.980469 8.851562 7.988281 C 9.117188 8.007812 9.394531 8.023438 9.675781 8.035156 C 9.777344 8.039062 9.878906 8.042969 9.984375 8.046875 C 10.351562 8.0625 10.722656 8.070312 11.109375 8.070312 C 11.496094 8.070312 11.867188 8.058594 12.234375 8.046875 C 12.339844 8.042969 12.441406 8.039062 12.542969 8.035156 C 12.824219 8.023438 13.097656 8.007812 13.367188 7.988281 C 13.453125 7.980469 13.539062 7.976562 13.621094 7.96875 C 13.957031 7.941406 14.285156 7.90625 14.601562 7.871094 C 14.667969 7.863281 14.730469 7.851562 14.792969 7.84375 C 15.046875 7.808594 15.296875 7.773438 15.539062 7.734375 C 15.625 7.71875 15.710938 7.707031 15.796875 7.691406 C 16.050781 7.644531 16.296875 7.597656 16.535156 7.546875 C 16.570312 7.539062 16.613281 7.53125 16.648438 7.523438 C 16.917969 7.460938 17.175781 7.394531 17.421875 7.328125 C 17.492188 7.308594 17.558594 7.289062 17.625 7.269531 C 17.8125 7.214844 17.992188 7.15625 18.167969 7.097656 C 18.230469 7.078125 18.296875 7.054688 18.355469 7.035156 C 18.574219 6.957031 18.789062 6.875 18.988281 6.792969 C 19.015625 6.78125 19.039062 6.765625 19.070312 6.753906 C 19.238281 6.679688 19.402344 6.605469 19.558594 6.523438 C 19.609375 6.496094 19.664062 6.46875 19.714844 6.441406 C 19.851562 6.367188 19.984375 6.292969 20.109375 6.214844 C 20.140625 6.195312 20.175781 6.175781 20.207031 6.15625 C 20.355469 6.058594 20.492188 5.960938 20.621094 5.859375 C 20.652344 5.832031 20.679688 5.808594 20.710938 5.78125 C 20.769531 5.738281 20.824219 5.691406 20.875 5.644531 L 20.875 9.128906 C 20.875 9.199219 20.859375 9.269531 20.84375 9.339844 C 20.832031 9.390625 20.816406 9.4375 20.796875 9.488281 C 20.777344 9.53125 20.757812 9.574219 20.734375 9.621094 C 20.703125 9.671875 20.675781 9.71875 20.636719 9.769531 C 20.609375 9.8125 20.574219 9.851562 20.539062 9.894531 C 20.496094 9.949219 20.445312 10 20.390625 10.054688 C 20.355469 10.089844 20.316406 10.125 20.277344 10.160156 C 20.207031 10.21875 20.136719 10.277344 20.058594 10.335938 C 20.019531 10.363281 19.980469 10.390625 19.941406 10.417969 C 19.847656 10.480469 19.75 10.546875 19.644531 10.609375 C 19.609375 10.628906 19.578125 10.648438 19.546875 10.664062 C 19.421875 10.734375 19.292969 10.804688 19.152344 10.871094 C 19.132812 10.882812 19.109375 10.890625 19.085938 10.902344 C 18.929688 10.976562 18.765625 11.046875 18.589844 11.117188 C 18.582031 11.121094 18.574219 11.125 18.566406 11.128906 C 17.601562 11.511719 16.371094 11.835938 14.9375 12.046875 C 14.929688 12.046875 14.917969 12.050781 14.90625 12.050781 C 14.632812 12.089844 14.347656 12.128906 14.058594 12.160156 C 14.003906 12.164062 13.953125 12.167969 13.902344 12.175781 C 13.648438 12.199219 13.390625 12.226562 13.125 12.246094 C 13 12.253906 12.871094 12.257812 12.742188 12.265625 C 12.542969 12.277344 12.347656 12.289062 12.144531 12.296875 C 11.804688 12.308594 11.460938 12.316406 11.109375 12.316406 C 10.757812 12.316406 10.414062 12.308594 10.074219 12.296875 C 9.871094 12.289062 9.675781 12.277344 9.472656 12.265625 C 9.347656 12.257812 9.21875 12.253906 9.09375 12.246094 C 8.828125 12.226562 8.570312 12.199219 8.316406 12.175781 C 8.265625 12.167969 8.214844 12.164062 8.164062 12.160156 C 7.871094 12.128906 7.585938 12.089844 7.3125 12.050781 C 7.300781 12.050781 7.289062 12.046875 7.28125 12.046875 C 5.84375 11.835938 4.613281 11.511719 3.648438 11.128906 C 3.644531 11.125 3.636719 11.121094 3.628906 11.121094 C 3.453125 11.046875 3.289062 10.976562 3.128906 10.902344 C 3.109375 10.890625 3.089844 10.882812 3.070312 10.871094 C 2.925781 10.804688 2.796875 10.734375 2.671875 10.664062 C 2.640625 10.644531 2.609375 10.628906 2.578125 10.609375 C 2.46875 10.546875 2.371094 10.480469 2.273438 10.417969 C 2.238281 10.390625 2.199219 10.363281 2.164062 10.335938 C 2.082031 10.277344 2.011719 10.21875 1.941406 10.160156 C 1.902344 10.125 1.863281 10.089844 1.828125 10.054688 C 1.773438 10.003906 1.722656 9.949219 1.675781 9.894531 C 1.644531 9.851562 1.609375 9.8125 1.582031 9.773438 C 1.546875 9.722656 1.511719 9.667969 1.484375 9.617188 C 1.460938 9.574219 1.441406 9.53125 1.421875 9.488281 C 1.402344 9.4375 1.386719 9.386719 1.375 9.339844 C 1.359375 9.269531 1.339844 9.199219 1.339844 9.132812 L 1.339844 5.644531 C 1.390625 5.691406 1.449219 5.738281 1.503906 5.785156 C 1.535156 5.808594 1.566406 5.832031 1.597656 5.859375 Z M 11.109375 0.847656 C 16.863281 0.847656 20.875 2.527344 20.875 4.035156 C 20.875 5.542969 16.863281 7.21875 11.109375 7.21875 C 5.351562 7.21875 1.339844 5.542969 1.339844 4.035156 C 1.339844 2.527344 5.351562 0.847656 11.109375 0.847656 Z M 11.109375 0.847656"/>
</svg>

<svg xmlns="http://www.w3.org/2000/svg" width="32" height="32" viewBox="0 0 24 24">
    <path d="M23.355 19.809c-1.492-2.278-3.484-3.567-5.632-3.649-.114-.012-.227-.023-.344-.023-.207 0-.41.023-.606.066-1.953.25-3.75 1.508-5.125 3.606l-.199.3.153.235C13.148 22.704 15.227 24 17.457 24c2.23 0 4.309-1.3 5.852-3.656l.199-.301zm-3.89-.735a2.087 2.087 0 0 1-2.086 2.082 2.087 2.087 0 0 1-2.086-2.082c0-.996.703-1.832 1.64-2.035a4.61 4.61 0 0 1 .57-.039c.009 0 .017.004.024.004a2.082 2.082 0 0 1 1.938 2.07zm-2.008 4.078c-1.863 0-3.625-1.078-4.988-3.043.664-.972 1.422-1.726 2.242-2.254a2.937 2.937 0 0 0 2.668 4.152 2.937 2.937 0 0 0 2.933-2.933c0-.52-.132-1.004-.37-1.426.937.512 1.804 1.32 2.546 2.395-1.367 2.008-3.148 3.11-5.031 3.11zm0 0"/>
    <path d="M11.11 17.414c-.352 0-.696-.008-1.036-.02-.203-.007-.398-.023-.601-.035a12.302 12.302 0 0 1-.38-.02c-.265-.019-.523-.042-.777-.07l-.152-.011a38.61 38.61 0 0 1-.851-.11c-.012-.003-.024-.003-.032-.003-1.437-.215-2.668-.536-3.633-.922-.003 0-.011-.004-.02-.008-.175-.07-.339-.145-.5-.219-.019-.008-.038-.02-.058-.027a5.387 5.387 0 0 1-.398-.207c-.031-.02-.063-.035-.094-.055a4.543 4.543 0 0 1-.305-.195c-.035-.028-.074-.051-.109-.078a2.625 2.625 0 0 1-.223-.18 1.4 1.4 0 0 1-.113-.102 2.919 2.919 0 0 1-.152-.164c-.031-.039-.067-.078-.094-.12-.035-.052-.07-.102-.098-.153a1.947 1.947 0 0 1-.062-.13 1.136 1.136 0 0 1-.047-.151c-.016-.067-.035-.137-.035-.207v-3.485c.008.008.02.012.027.02.098.086.2.175.313.258 1.601 1.207 4.797 2.144 9.43 2.144 4.62 0 7.812-.934 9.417-2.137.125-.09.235-.183.34-.277.004-.004.008-.004.008-.008v3.695c0 .239.191.426.426.426a.424.424 0 0 0 .426-.425V3.82a.428.428 0 0 0-.063-.207C21.172 1.793 17.512 0 11.11 0 4.707 0 1.047 1.793.555 3.613a.428.428 0 0 0-.063.207v15.715c0 .07.016.133.047.192.484 2.05 4.543 3.261 8.414 3.55.012 0 .024.004.035.004a.426.426 0 0 0 .032-.851c-4.723-.352-7.473-1.79-7.665-2.961-.003-.02-.007-.04-.015-.059v-3.57c.008.004.02.012.027.02.098.085.2.171.313.253 1.601 1.211 4.797 2.149 9.43 2.149a.423.423 0 1 0 0-.848zM1.597 5.86c.125.102.265.2.414.297l.097.059c.125.078.258.152.395.226.05.028.105.055.156.082.156.082.317.157.488.23.028.013.055.028.082.04.2.082.41.164.633.242.059.02.125.043.188.063.172.058.355.117.543.172a22.261 22.261 0 0 0 .977.254l.113.023c.238.05.484.098.738.144.086.016.172.028.258.043.242.04.488.075.746.11.062.008.125.02.191.027.317.035.645.07.98.098.083.008.169.011.255.02.265.019.543.034.824.046l.308.012a26.33 26.33 0 0 0 2.25 0l.309-.012c.281-.012.555-.027.824-.047.086-.008.172-.011.254-.02.336-.027.664-.062.98-.097.067-.008.13-.02.192-.027.254-.035.504-.07.746-.11.086-.015.172-.027.258-.043.254-.046.5-.093.738-.144l.113-.024c.27-.062.528-.128.774-.195l.203-.058c.188-.055.367-.114.543-.172l.187-.063c.22-.078.434-.16.633-.242.028-.012.051-.027.082-.04.168-.073.332-.148.489-.23.05-.027.105-.054.156-.082a7.48 7.48 0 0 0 .394-.226l.098-.059c.148-.097.285-.195.414-.297l.09-.078c.059-.043.113-.09.164-.136v3.484c0 .07-.016.14-.031.21a1.085 1.085 0 0 1-.11.282c-.03.05-.058.098-.097.149-.028.043-.063.082-.098.125-.043.054-.094.105-.148.16-.036.035-.075.07-.114.105-.07.059-.14.117-.218.176l-.118.082c-.093.062-.191.129-.296.191-.036.02-.067.04-.098.055-.125.07-.254.14-.395.207-.02.012-.043.02-.066.031-.156.075-.32.145-.496.215l-.024.012c-.964.383-2.195.707-3.628.918-.008 0-.02.004-.032.004a24.976 24.976 0 0 1-1.004.125c-.254.023-.511.05-.777.07-.125.008-.254.012-.383.02-.199.011-.394.023-.597.03-.34.013-.684.02-1.036.02-.351 0-.695-.007-1.035-.02-.203-.007-.398-.019-.601-.03-.125-.008-.254-.012-.38-.02-.265-.02-.523-.047-.777-.07a23.997 23.997 0 0 1-1.004-.125c-.011 0-.023-.004-.03-.004-1.438-.211-2.669-.535-3.634-.918a15.85 15.85 0 0 1-.52-.227c-.019-.011-.038-.02-.058-.03a5.387 5.387 0 0 1-.398-.208c-.031-.02-.063-.035-.094-.055-.11-.062-.207-.129-.305-.191l-.109-.082c-.082-.059-.152-.117-.223-.176-.039-.035-.078-.07-.113-.105a1.951 1.951 0 0 1-.152-.16c-.031-.043-.067-.082-.094-.122a1.71 1.71 0 0 1-.16-.285 1.288 1.288 0 0 1-.047-.148c-.016-.07-.035-.14-.035-.207V5.645c.05.046.11.093.164.14.031.024.062.047.094.074zM11.109.848c5.754 0 9.766 1.68 9.766 3.187 0 1.508-4.012 3.184-9.766 3.184-5.757 0-9.77-1.676-9.77-3.184 0-1.508 4.013-3.187 9.77-3.187zm0 0"/>
</svg>
